svg/24/logo-marketplace.svg

<svg width="24" height="24" viewBox="0 0 24 24" fill="currentColor" xmlns="http://www.w3.org/2000/svg"><path d="M8.01578 6.01876L8.00639 6.01171L6.48914 5.14137L5.72962 5.58057V8.97373L6.49008 9.4087L8.64085 8.16451L7.90199 7.74081L6.46707 8.57076V5.97892L10.6291 8.36924L10.6268 8.38427C10.4018 9.0667 9.97629 9.65429 9.39622 10.0832C8.80394 10.5209 8.1021 10.752 7.36614 10.752C5.4723 10.752 3.93166 9.20523 3.93166 7.30435C3.93166 5.40347 5.4723 3.85672 7.36614 3.85672C8.81607 3.85672 10.1172 4.7802 10.6028 6.15407C10.639 6.25596 10.6705 6.36076 10.6968 6.46594L11.4591 6.02251C11.4267 5.9178 11.3896 5.81348 11.3497 5.71205C11.0355 4.9206 10.4995 4.24568 9.79919 3.75999C9.0824 3.26303 8.24117 3 7.36614 3C6.22055 3 5.144 3.44765 4.33423 4.2607C3.52447 5.07376 3.07822 6.15501 3.07822 7.30435C3.07822 8.45369 3.52447 9.53494 4.33431 10.348C5.14454 11.161 6.2211 11.6087 7.36621 11.6087C8.38032 11.6087 9.36382 11.2466 10.136 10.5894C10.896 9.94268 11.4093 9.04839 11.5846 8.0695L8.01578 6.01876Z"/><path d="M19.4348 11.6087C20.2993 11.6087 21 10.9079 21 10.0435C21 9.40831 20.6216 8.8615 20.078 8.61616L17.5668 7.48278C17.5085 7.45641 17.4515 7.39356 17.4515 7.30435C17.4515 7.22491 17.4989 7.15659 17.567 7.12599L20.078 5.99262C20.3498 5.86998 20.5803 5.6719 20.7429 5.42515C20.9054 5.17831 21 4.8828 21 4.56522C21 3.70083 20.2993 3 19.4348 3C18.7996 3 18.2528 3.37839 18.0075 3.92207L16.8741 6.43315C16.8435 6.50116 16.775 6.5485 16.6957 6.5485C16.6163 6.5485 16.548 6.50123 16.5173 6.4333L15.3839 3.92207C15.2612 3.65019 15.0632 3.41971 14.8165 3.25717C14.5697 3.09462 14.2742 3 13.9565 3C13.0922 3 12.3913 3.70083 12.3913 4.56522C12.3913 5.20046 12.7697 5.74727 13.3134 5.99262L15.8246 7.12599C15.8926 7.15659 15.9399 7.22491 15.9399 7.30435C15.9399 7.38378 15.8926 7.4521 15.8247 7.48278L13.3135 8.61616C13.0417 8.73887 12.8111 8.93687 12.6486 9.18363C12.486 9.43038 12.3914 9.72589 12.3914 10.0435C12.3914 10.9079 13.0922 11.6087 13.9566 11.6087C14.5919 11.6087 15.1387 11.2304 15.384 10.6867L16.5174 8.17563C16.548 8.10762 16.6163 8.06019 16.6958 8.06019C16.7752 8.06019 16.8434 8.10754 16.8741 8.17547L18.0075 10.6867C18.1301 10.9585 18.3282 11.1891 18.575 11.3516C18.8217 11.5142 19.1172 11.6087 19.4348 11.6087Z"/><path d="M3.97834 12.7826C3.43803 12.7826 3.00008 13.2205 3.00008 13.7608C3.00008 14.3011 3.43803 14.7391 3.97834 14.7391H8.90259L3.7117 18.1225C3.28323 18.4018 3 18.8852 3 19.4347C3 20.2992 3.70075 20.9999 4.56522 20.9999C5.11477 20.9999 5.5981 20.7166 5.87734 20.2882L9.26095 15.0974V20.0217C9.26095 20.562 9.6989 20.9999 10.2392 20.9999C10.7795 20.9999 11.2175 20.562 11.2175 20.0217V12.7826H3.97834Z"/><path d="M12.7827 16.5C12.7827 14.2309 14.6222 12.3913 16.8914 12.3913C19.1605 12.3913 21.0001 14.2309 21.0001 16.5C21.0001 18.7692 19.1605 20.6087 16.8914 20.6087H12.7827V16.5Z"/></svg>

<svg xmlns="http://www.w3.org/2000/svg" width="24" height="24" fill="currentColor" viewBox="0 0 24 24">
  <path d="m8.016 6.019-.01-.007-1.517-.87-.76.439v3.393l.761.435 2.15-1.244-.738-.424-1.435.83V5.979l4.162 2.39-.002.015a3.444 3.444 0 0 1-3.26 2.368 3.445 3.445 0 0 1-3.435-3.448c0-1.9 1.54-3.447 3.434-3.447a3.443 3.443 0 0 1 3.33 2.609l.763-.443A4.298 4.298 0 0 0 9.8 3.76 4.25 4.25 0 0 0 7.366 3a4.25 4.25 0 0 0-3.032 1.26 4.286 4.286 0 0 0-1.256 3.044c0 1.15.446 2.23 1.256 3.044a4.277 4.277 0 0 0 5.802.241 4.314 4.314 0 0 0 1.449-2.52l-3.57-2.05Zm11.419 5.59a1.565 1.565 0 0 0 .643-2.993l-2.511-1.133a.196.196 0 0 1 0-.357l2.511-1.133A1.572 1.572 0 0 0 21 4.565a1.565 1.565 0 0 0-2.992-.643l-1.134 2.511a.196.196 0 0 1-.357 0l-1.133-2.51A1.572 1.572 0 0 0 13.956 3a1.565 1.565 0 0 0-.643 2.993l2.512 1.133a.195.195 0 0 1 0 .357l-2.511 1.133a1.572 1.572 0 0 0-.923 1.428 1.565 1.565 0 0 0 2.993.643l1.133-2.511a.196.196 0 0 1 .357 0l1.134 2.51a1.57 1.57 0 0 0 1.427.923ZM3.978 12.783a.978.978 0 1 0 0 1.956h4.925l-5.191 3.383A1.564 1.564 0 0 0 4.565 21c.55 0 1.033-.283 1.312-.712l3.384-5.19v4.924a.978.978 0 1 0 1.957 0v-7.24h-7.24Zm8.805 3.717a4.109 4.109 0 1 1 4.108 4.109h-4.108V16.5Z"/>
</svg>
